icons/white/picnic.svg

<?xml version="1.0" encoding="UTF-8"?><svg id="a" xmlns="http://www.w3.org/2000/svg" viewBox="0 0 48 48"><defs><style>.c{fill:none;stroke:#fff;stroke-linecap:round;stroke-linejoin:round;}.d{fill:#fff;stroke-width:0px;}</style></defs><path id="b" class="c" d="M9.5,5.5c-2.2091,0-4,1.7909-4,4v29c0,2.2091,1.7909,4,4,4h29c2.2091,0,4-1.7909,4-4V9.5c0-2.2091-1.7909-4-4-4H9.5Z"/><path class="c" d="M11.6351,22.3495v-11.8495h3.8793c2.1931,0,3.971,1.7817,3.971,3.9796s-1.7779,3.9796-3.971,3.9796h-3.8793"/><polyline class="c" points="11.6351 37.5 11.6351 25.6505 19.4854 37.5 19.4854 25.6505"/><circle class="d" cx="24" cy="24.0045" r=".75"/><line class="c" x1="24" y1="27.4458" x2="24" y2="37.5"/><line class="c" x1="24" y1="10.5" x2="24" y2="20.5542"/><path class="c" d="M36.3649,18.3758v.0485c0,2.1678-1.7573,3.9251-3.9251,3.9251h0c-2.1678,0-3.9251-1.7573-3.9251-3.9251v-3.9992c0-2.1678,1.7574-3.9252,3.9252-3.9251h0c2.1678,0,3.9251,1.7574,3.9251,3.9251v.0485"/><path class="c" d="M36.3649,33.5263v.0485c0,2.1678-1.7573,3.9251-3.9251,3.9251h0c-2.1678,0-3.9251-1.7573-3.9251-3.9251v-3.9992c0-2.1678,1.7574-3.9252,3.9252-3.9251h0c2.1678,0,3.9251,1.7574,3.9251,3.9251v.0485"/></svg>

<svg xmlns="http://www.w3.org/2000/svg" viewBox="0 0 48 48"><defs><style>.a{fill:none;stroke:#fff;stroke-linecap:round;stroke-linejoin:round;}.b{fill:#fff;}</style></defs><path class="a" d="M7.5,5.5a2,2,0,0,0-2,2v33a2,2,0,0,0,2,2h33a2,2,0,0,0,2-2V7.5a2,2,0,0,0-2-2Z"/><path class="a" d="M11.6351,22.35V10.5h3.8793a3.98,3.98,0,0,1,0,7.9591H11.6351"/><polyline class="a" points="11.635 37.5 11.635 25.65 19.485 37.5 19.485 25.65"/><circle class="b" cx="24" cy="24.0045" r="0.75"/><line class="a" x1="24" y1="27.4458" x2="24" y2="37.5"/><line class="a" x1="24" y1="10.5" x2="24" y2="20.5542"/><path class="a" d="M36.3649,18.3758v.0486A3.9251,3.9251,0,0,1,32.44,22.35h0a3.9252,3.9252,0,0,1-3.9252-3.9251V14.4252A3.9252,3.9252,0,0,1,32.44,10.5h0a3.9252,3.9252,0,0,1,3.9251,3.9252v.0485"/><path class="a" d="M36.3649,33.5263v.0485A3.9252,3.9252,0,0,1,32.44,37.5h0a3.9252,3.9252,0,0,1-3.9252-3.9252V29.5756A3.9252,3.9252,0,0,1,32.44,25.6505h0a3.9251,3.9251,0,0,1,3.9251,3.9251v.0486"/></svg>
